X:1
T:9 Lieder und Gesänge, Op.63
T:Junge Lieder I
T:5. Junge Lieder I
T:Johannes Brahms
T:Felix Schumann
T:9 Lieder und Gesänge, Op.63
T:Creative Commons copyright waiver (CC0 1.0 Universal) 
T:Creative Commons copyright waiver (CC0 1.0 Universal) 
T:Creative Commons copyright waiver (CC0 1.0 Universal) 
T:Creative Commons copyright waiver (CC0 1.0 Universal) 
T:Creative Commons copyright waiver (CC0 1.0 Universal) 
C:Johannes Brahms
Z:Felix Schumann
Z:Creative Commons copyright waiver (CC0 1.0 Universal)
Z:
L:1/8
M:4/4
K:F#
V:1 treble nm="Singstimme\nVoice"
V:1
 z2 A A d4- | d2 d d f4- | f2 c d c3 G | A4 z2 F F | B2 A2 (GA) B =e | (c3 d) c2 z c | %6
w: Mei- ne Lie-|* be ist grün|_ wie der Flie- der-|busch, und mein|Lieb ist schön _ wie die|Son- * e, mein|
 d2 c2 ^B2 f ^e | d4 c2 z c | =d2 d d d2 B d | f3 e B2 z c | =d2 d d d2 B d | (=a3 g) =d2 ^d2 | %12
w: Lieb ist schön wie die|Son- ne, die|glänzt wohl her- ab auf den|Flie- der- busch und|füllt ihn mit Duft und mit|Won- * ne, und|
 =e4 ^e2 e2 | (g2 f2) e2 d2 | (c6 E2) | F2 z2 z4 | z8 | z8 | z8 | !fermata!z2 z2 z4 | z2 A A d4- | %21
w: füllt ihn mit|Duft _ und mit|Won- *|ne.|||||Mei- ne See-|
 d2 d d f4- | f2 c d c3 G | A4 z2 F2 | B2 A A (GA) B =e | (c3 d) c2 z c | d2 c c ^B2 f ^e | %27
w: * le hat Schwin-|* gen der Nach- ti-|gall und|wiegt sich in blü- * hen- dem|Flie- * der, und|wiegt sich in blü- hen- dem|
 d4 c2 z c | =d2 d d d2 B d | f3 e B2 z c | =d2 d2 d2 B d | (=a3 g) =d2 ^d2 | =e4 ^e4 | %33
w: Flie- der, und|jauch- zet und sin- get vom|Duft be- rauscht viel|lie- bes- trun- ke- ne|Lie- * der, viel|lie- bes-|
 (g2 f2) e2 d2 | (c6 E2) | F2 z2 z4 | z8 | z8 | z8 | !fermata!z2 z2 z4 | !fermata!z8 |] %41
w: trun- * ke- ne|Lie- *|der.||||||

